X:283
T: Rattle the Cash
R:Jig 32
Q:140
K:G
M:6/8
L:1/16
|:D2|G4B2 B2G2B2|c4c2 c4A2|G4B2 B2G2B2|A4A2 A4D2|
G4B2 B2G2B2|c4c2 c4A2|d2B2G2 c2A2F2|G4G2 G4:|
|:d2|g4g2 g2e2c2|c4c2 c4c2|a4a2 a2f2d2|d4d2 d4d2|
g4g2 g2e2c2|c4c2 c4c2|B2G2B2 c2A2F2|G4G2 G4:|

